public/hellosleuth.svg

<svg fill="none" height="48" viewBox="0 0 48 48" width="48" xmlns="http://www.w3.org/2000/svg" xmlns:xlink="http://www.w3.org/1999/xlink"><linearGradient id="a" gradientUnits="userSpaceOnUse" x1="37.5041" x2="11.0507" y1="-.866711" y2="45.3798"><stop offset="0" stop-color="#9da4ff"/><stop offset="1" stop-color="#7872f2"/></linearGradient><path d="m40.3424 10.9763c-.2511-.3764-.3777-.821-.3622-1.27198s.1723-.88599.4487-1.24462c.9222-1.19795 1.8331-2.66098 2.0403-3.96609.4554-2.83132-2.3306-4.768115-5.4137-3.575805-.3973.150025-.8072.322615-1.2182.498585-.8404.35623-1.7464.53519-2.6604.52548-.9141-.00971-1.816-.20788-2.6485-.58188-2.0568-.896851-4.2794-1.35999-6.5265-1.35999-2.2472 0-4.4698.463139-6.5266 1.35999-.8328.37417-1.7351.57252-2.6495.58242-.9143.0099-1.8208-.16885-2.6617-.52489-.4121-.17936-.822-.34856-1.2182-.501971-3.08422-1.193438-5.86675.743361-5.4159 3.574671.20835 1.30737 1.12258 2.77379 2.04705 3.96948.27576.3568.43221.78999.44752 1.23912.01531.44908-.11129.89178-.36213 1.26618-12.8789 19.1221-5.14951 34.3356 11.22576 36.9233 3.5602.564 7.167-1.0367 8.9442-4.1443 1.3104-2.2888 1.5939-5.0953.7378-7.5408-.0429-.1237-.1309-.2271-.2468-.2897-.1159-.0627-.2513-.08-.3794-.0487-.7908.1919-1.617.19-2.4069-.0057-.3201-.0824-.6165-.2374-.8658-.4528-.2493-.2153-.4448-.485-.571-.788-.0926-.2324-.0896-.4914.0083-.7217s.2829-.4134.5155-.5101c.3601-.1512.6881-.3686.9666-.6407.0426-.0417.0758-.0919.0974-.1472.0216-.0554.0311-.1147.0279-.174-.0032-.0592-.0191-.1172-.0466-.1699-.0275-.0528-.066-.0991-.1129-.136-.3222-.2482-.9268-.5584-1.9423-.5584-1.0156 0-1.6213.3102-1.9435.5584-.0469.0369-.0853.0832-.1128.136-.0275.0527-.0434.1107-.0466.1699-.0033.0593.0062.1186.0278.174.0216.0553.0549.1055.0975.1472.2765.2727.6025.4913.9609.6441.2329.0963.4184.2793.5166.5096.0981.2304.1011.4897.0083.7222-.1264.303-.3221.5728-.5716.7881-.2495.2154-.5461.3703-.8664.4527-2.3351.5798-4.5541-.6023-6.1856-2.4049-1.3662-1.5059-2.318-3.4427-2.5889-5.1415-.2562-1.6119 1.2728-2.5538 3.0842-2.0304.5383.1551 1.0652.347 1.5768.5742.3295.1478.69.2154 1.0512.1972.3613-.0182.7129-.1218 1.0255-.3021 1.1715-.6881 2.6186-1.1957 3.9666-1.1957s2.7951.5076 3.9666 1.1957c.3124.1802.6638.2838 1.0249.3021.3611.0182.7213-.0494 1.0506-.1972.51-.2283 1.0354-.4213 1.5723-.5776 1.8102-.5177 3.3404.4241 3.0831 2.0304-.1753 1.0999-.6376 2.2989-1.3104 3.4157-.1704.2768-.2692.5909-.2876.9146-.0185.3237.0439.6469.1817.941 2.7768 5.8216 1.3981 10.2649-1.997 12.7127-.5692.4094-.1628 1.2927.5203 1.128 14.7632-3.5995 21.1753-18.2547 8.9237-36.4484zm-18.3119 25.6837c.3016-.1204.5919-.2668.8676-.4376.2139-.1289.4595-.1971.7098-.1971.2504 0 .496.0682.7099.1971.2775.1719.5697.3195.8732.441.0478.0191.0887.0519.1175.0942.0289.0424.0443.0922.0443.1433 0 .051-.0154.1009-.0443.1432-.0288.0423-.0697.0751-.1175.0942-.5084.1965-1.0482.3012-1.5939.3091-.5409-.0152-1.0752-.1212-1.5802-.3136-.0474-.0202-.0876-.054-.1153-.097-.0277-.0431-.0418-.0934-.0403-.1445.0015-.051.0184-.1005.0486-.1419.0301-.0414.0722-.0729.1206-.0904zm3.7298-17.5067c-.6872.2619-1.4156.4016-2.1518.4128-.7285-.02-1.4485-.1607-2.1302-.4162-.0695-.0253-.1297-.071-.1724-.1309-.0428-.06-.0662-.1314-.067-.2048-.0009-.0734.0208-.1453.0621-.2063.0414-.0609.1004-.1079.1694-.1348.4433-.179.8697-.3968 1.274-.6509.2595-.1587.5585-.2428.8635-.2428s.604.0841.8636.2428c.4085.2591.8399.4811 1.2888.6633.0664.0276.1231.074.1629.1334.0399.0594.0612.1291.0612.2005 0 .0713-.0213.1411-.0612.2005-.0398.0594-.0965.1058-.1629.1334zm5.1814-2.2245c-.4122 1.3762-2.6937 1.0931-4.6042.5855-.9518-.2911-1.6224-.9431-1.989-1.9256-.1335-.3775-.1161-.7913.0486-1.1565.1648-.3651.4643-.654.8372-.8073.5522-.2408 1.0542-.5817 1.4801-1.0051.0651-.0635.1159-.14.1491-.2244.0331-.0844.0479-.1749.0433-.2653-.0047-.0905-.0286-.1789-.0702-.2596-.0416-.0806-.0999-.1517-.1712-.2084-.5009-.3914-1.4516-.8877-3.0592-.8877s-2.5594.4963-3.0592.8877c-.0712.0567-.1296.1278-.1712.2084-.0416.0807-.0655.1691-.0701.2596-.0046.0904.0101.1809.0433.2653.0331.0844.0839.1609.1491.2244.426.4233.9279.7641 1.48 1.0051.3731.153.6728.4419.8376.8072.1647.3652.182.7792.0482 1.1566-.3655.9825-1.0372 1.6345-1.9878 1.9256-1.9116.5076-4.1932.7896-4.6053-.5855-.7298-2.4387 1.159-8.3123 7.3366-8.3123s8.0675 5.8736 7.3343 8.3123z" fill="url(#a)"/></svg>

<svg width="48" height="48" viewBox="0 0 48 48" fill="none" xmlns="http://www.w3.org/2000/svg">
<rect width="48" height="48" fill="white"/>
<path d="M40.3424 10.9763C40.0913 10.5999 39.9647 10.1553 39.9802 9.70432C39.9957 9.25334 40.1525 8.81833 40.4289 8.4597C41.3511 7.26175 42.262 5.79872 42.4692 4.49361C42.9246 1.66229 40.1386 -0.274505 37.0555 0.917805C36.6582 1.06783 36.2483 1.24042 35.8373 1.41639C34.9969 1.77262 34.0909 1.95158 33.1769 1.94187C32.2628 1.93216 31.3609 1.73399 30.5284 1.35999C28.4716 0.463139 26.249 0 24.0019 0C21.7547 0 19.5321 0.463139 17.4753 1.35999C16.6425 1.73416 15.7402 1.93251 14.8258 1.94241C13.9115 1.95231 13.005 1.77356 12.1641 1.41752C11.752 1.23816 11.3421 1.06896 10.9459 0.915549C7.86168 -0.277889 5.07915 1.65891 5.53 4.49022C5.73835 5.79759 6.65258 7.26401 7.57705 8.4597C7.85281 8.8165 8.00926 9.24969 8.02457 9.69882C8.03988 10.1479 7.91328 10.5906 7.66244 10.965C-5.21646 30.0871 2.51293 45.3006 18.8882 47.8883C22.4484 48.4523 26.0552 46.8516 27.8324 43.744C29.1428 41.4552 29.4263 38.6487 28.5702 36.2032C28.5273 36.0795 28.4393 35.9761 28.3234 35.9135C28.2075 35.8508 28.0721 35.8335 27.944 35.8648C27.1532 36.0567 26.327 36.0548 25.5371 35.8591C25.217 35.7767 24.9206 35.6217 24.6713 35.4063C24.422 35.191 24.2265 34.9213 24.1003 34.6183C24.0077 34.3859 24.0107 34.1269 24.1086 33.8966C24.2065 33.6663 24.3915 33.4832 24.6241 33.3865C24.9842 33.2353 25.3122 33.0179 25.5907 32.7458C25.6333 32.7041 25.6665 32.6539 25.6881 32.5986C25.7097 32.5432 25.7192 32.4839 25.716 32.4246C25.7128 32.3654 25.6969 32.3074 25.6694 32.2547C25.6419 32.2019 25.6034 32.1556 25.5565 32.1187C25.2343 31.8705 24.6297 31.5603 23.6142 31.5603C22.5986 31.5603 21.9929 31.8705 21.6707 32.1187C21.6238 32.1556 21.5854 32.2019 21.5579 32.2547C21.5304 32.3074 21.5145 32.3654 21.5113 32.4246C21.508 32.4839 21.5175 32.5432 21.5391 32.5986C21.5607 32.6539 21.594 32.7041 21.6366 32.7458C21.9131 33.0185 22.2391 33.2371 22.5975 33.3899C22.8304 33.4862 23.0159 33.6692 23.1141 33.8995C23.2122 34.1299 23.2152 34.3892 23.1224 34.6217C22.996 34.9247 22.8003 35.1945 22.5508 35.4098C22.3013 35.6252 22.0047 35.7801 21.6844 35.8625C19.3493 36.4423 17.1303 35.2602 15.4988 33.4576C14.1326 31.9517 13.1808 30.0149 12.9099 28.3161C12.6537 26.7042 14.1827 25.7623 15.9941 26.2857C16.5324 26.4408 17.0593 26.6327 17.5709 26.8599C17.9004 27.0077 18.2609 27.0753 18.6221 27.0571C18.9834 27.0389 19.335 26.9353 19.6476 26.755C20.8191 26.0669 22.2662 25.5593 23.6142 25.5593C24.9622 25.5593 26.4093 26.0669 27.5808 26.755C27.8932 26.9352 28.2446 27.0388 28.6057 27.0571C28.9668 27.0753 29.327 27.0077 29.6563 26.8599C30.1663 26.6316 30.6917 26.4386 31.2286 26.2823C33.0388 25.7646 34.569 26.7064 34.3117 28.3127C34.1364 29.4126 33.6741 30.6116 33.0013 31.7284C32.8309 32.0052 32.7321 32.3193 32.7137 32.643C32.6952 32.9667 32.7576 33.2899 32.8954 33.584C35.6722 39.4056 34.2935 43.8489 30.8984 46.2967C30.3292 46.7061 30.7356 47.5894 31.4187 47.4247C46.1819 43.8252 52.594 29.17 40.3424 10.9763ZM22.0305 36.66C22.3321 36.5396 22.6224 36.3932 22.8981 36.2224C23.112 36.0935 23.3576 36.0253 23.6079 36.0253C23.8583 36.0253 24.1039 36.0935 24.3178 36.2224C24.5953 36.3943 24.8875 36.5419 25.191 36.6634C25.2388 36.6825 25.2797 36.7153 25.3085 36.7576C25.3374 36.8 25.3528 36.8498 25.3528 36.9009C25.3528 36.9519 25.3374 37.0018 25.3085 37.0441C25.2797 37.0864 25.2388 37.1192 25.191 37.1383C24.6826 37.3348 24.1428 37.4395 23.5971 37.4474C23.0562 37.4322 22.5219 37.3262 22.0169 37.1338C21.9695 37.1136 21.9293 37.0798 21.9016 37.0368C21.8739 36.9937 21.8598 36.9434 21.8613 36.8923C21.8628 36.8413 21.8797 36.7918 21.9099 36.7504C21.94 36.709 21.9821 36.6775 22.0305 36.66ZM25.7603 19.1533C25.0731 19.4152 24.3447 19.5549 23.6085 19.5661C22.88 19.5461 22.16 19.4054 21.4783 19.1499C21.4088 19.1246 21.3486 19.0789 21.3059 19.019C21.2631 18.959 21.2397 18.8876 21.2389 18.8142C21.238 18.7408 21.2597 18.6689 21.301 18.6079C21.3424 18.547 21.4014 18.5 21.4704 18.4731C21.9137 18.2941 22.3401 18.0763 22.7444 17.8222C23.0039 17.6635 23.3029 17.5794 23.6079 17.5794C23.9129 17.5794 24.2119 17.6635 24.4715 17.8222C24.88 18.0813 25.3114 18.3033 25.7603 18.4855C25.8267 18.5131 25.8834 18.5595 25.9232 18.6189C25.9631 18.6783 25.9844 18.748 25.9844 18.8194C25.9844 18.8907 25.9631 18.9605 25.9232 19.0199C25.8834 19.0793 25.8267 19.1257 25.7603 19.1533ZM30.9417 16.9288C30.5295 18.305 28.248 18.0219 26.3375 17.5143C25.3857 17.2232 24.7151 16.5712 24.3485 15.5887C24.215 15.2112 24.2324 14.7974 24.3971 14.4322C24.5619 14.0671 24.8614 13.7782 25.2343 13.6249C25.7865 13.3841 26.2885 13.0432 26.7144 12.6198C26.7795 12.5563 26.8303 12.4798 26.8635 12.3954C26.8966 12.311 26.9114 12.2205 26.9068 12.1301C26.9021 12.0396 26.8782 11.9512 26.8366 11.8705C26.795 11.7899 26.7367 11.7188 26.6654 11.6621C26.1645 11.2707 25.2138 10.7744 23.6062 10.7744C21.9986 10.7744 21.0468 11.2707 20.547 11.6621C20.4758 11.7188 20.4174 11.7899 20.3758 11.8705C20.3342 11.9512 20.3103 12.0396 20.3057 12.1301C20.3011 12.2205 20.3158 12.311 20.349 12.3954C20.3821 12.4798 20.4329 12.5563 20.4981 12.6198C20.9241 13.0431 21.426 13.3839 21.9781 13.6249C22.3512 13.7779 22.6509 14.0668 22.8157 14.4321C22.9804 14.7973 22.9977 15.2113 22.8639 15.5887C22.4984 16.5712 21.8267 17.2232 20.8761 17.5143C18.9645 18.0219 16.6829 18.3039 16.2708 16.9288C15.541 14.4901 17.4298 8.6165 23.6074 8.6165C29.785 8.6165 31.6749 14.4901 30.9417 16.9288Z" fill="url(#paint0_linear)"/>
<defs>
<linearGradient id="paint0_linear" x1="37.5041" y1="-0.866711" x2="11.0507" y2="45.3798" gradientUnits="userSpaceOnUse">
<stop stop-color="#9DA4FF"/>
<stop offset="1" stop-color="#7872F2"/>
</linearGradient>
</defs>
</svg>
